X: 26268
T: Méiltí Cheann Dubhrann
R: waltz
M: 3/4
K: Adorian
B,D|E2 ED GE|D2 G,3 A,|B,D2E A,G,|A,4 B,A|E2 ED GE|D2 G,3 A,|B,D3 A,G,|A,3 B,A,B,|
D4 (3EFG|A2 E2 GA|B2 BA GF|G4 (3EFG|A2 BA (4 GFED|G2 G,2 G,A,|B,D3 A,G,|A,6||

